src/pos-icons/laravel.svg

<svg height="24" viewBox="0 0 24 24" width="24" xmlns="http://www.w3.org/2000/svg"><path d="m21.7 6.53c.01.02.01.05.01.08v4.29c0 .1-.06.22-.15.27l-3.61 2.08v4.11c0 .11-.05.21-.15.27l-7.52 4.33c-.02.01-.04.04-.06.04h-.02c-.05 0-.11 0-.16 0-.01 0-.04 0-.04 0s0-.03-.04-.04l-7.52-4.33c-.09-.05-.15-.16-.15-.27v-12.86c0-.05 0-.08.01-.1 0-.01.01-.02.01-.03 0-.02.01-.03.02-.05 0-.01.01-.02.02-.03l.03-.03.03-.03c.01-.01.02-.02.03-.02l3.76-2.17c.1-.04.22-.04.3 0l3.78 2.17c.01.01.02.01.03.02l.03.03c.01.01.02.02.03.03s.02.02.02.03c.01.02.02.03.02.05 0 .01.01.02.01.03.01.03.01.05.01.1v8l3.14-1.78v-4.11c0-.03 0-.06.01-.08l.01-.03s.01-.03.02-.05c0-.01.01-.02.02-.03s.02-.02.03-.03.02-.02.03-.03.02-.02.03-.02l3.78-2.17c.08-.06.2-.06.3 0l3.76 2.17c.01 0 .02.01.03.02l.03.03c.01.01.02.02.03.03s.01.02.02.03c.01.02.01.05.02.05s.01 0 .01.03m-.61 4.19v-3.57l-3.14 1.8v3.55zm-3.76 6.46v-3.58l-6.9 3.94v3.61zm-14.42-12.18v12.18l6.9 3.97v-3.61l-3.6-2.04h-.01c-.01 0-.02 0-.03-.03-.01 0-.02-.01-.03-.02-.01-.01-.02-.02-.03-.03s-.01-.02-.02-.03c-.01-.02-.01-.03-.02-.04 0-.02-.01-.03-.01-.04-.01-.01-.01-.03-.01-.04 0-.02 0-.03 0-.04v-8.41zm3.45-2.32-3.13 1.82 3.13 1.78 3.14-1.78zm3.45 10.2v-7.88l-3.14 1.82v7.87zm7.83-8.08-3.14 1.81 3.14 1.8 3.13-1.8zm-.31 4.15-3.14-1.8v3.57l3.14 1.78zm-7.21 8.05 6.88-3.94-3.12-1.8-6.88 3.97z"/></svg>

<?xml version="1.0" encoding="UTF-8"?><!DOCTYPE svg PUBLIC "-//W3C//DTD SVG 1.1//EN" "http://www.w3.org/Graphics/SVG/1.1/DTD/svg11.dtd"><svg xmlns="http://www.w3.org/2000/svg" xmlns:xlink="http://www.w3.org/1999/xlink" version="1.1" id="mdi-laravel" width="24" height="24" viewBox="0 0 24 24"><path d="M21.7 6.53C21.71 6.55 21.71 6.58 21.71 6.61V10.9C21.71 11 21.65 11.12 21.56 11.17L17.95 13.25V17.36C17.95 17.47 17.9 17.57 17.8 17.63L10.28 21.96C10.26 21.97 10.24 22 10.22 22L10.2 22C10.15 22 10.09 22 10.04 22C10.03 22 10 22 10 22C10 22 10 21.97 9.96 21.96L2.44 17.63C2.35 17.58 2.29 17.47 2.29 17.36V4.5C2.29 4.45 2.29 4.42 2.3 4.4C2.3 4.39 2.31 4.38 2.31 4.37C2.31 4.35 2.32 4.34 2.33 4.32C2.33 4.31 2.34 4.3 2.35 4.29C2.36 4.28 2.37 4.27 2.38 4.26C2.39 4.25 2.4 4.24 2.41 4.23C2.42 4.22 2.43 4.21 2.44 4.21L6.2 2.04C6.3 2 6.42 2 6.5 2.04L10.28 4.21H10.28C10.29 4.22 10.3 4.22 10.31 4.23C10.32 4.24 10.33 4.25 10.34 4.26C10.35 4.27 10.36 4.28 10.37 4.29C10.38 4.3 10.39 4.31 10.39 4.32C10.4 4.34 10.41 4.35 10.41 4.37C10.41 4.38 10.42 4.39 10.42 4.4C10.43 4.43 10.43 4.45 10.43 4.5V12.5L13.57 10.72V6.61C13.57 6.58 13.57 6.55 13.58 6.53L13.59 6.5C13.59 6.5 13.6 6.47 13.61 6.45C13.61 6.44 13.62 6.43 13.63 6.42C13.64 6.41 13.65 6.4 13.66 6.39C13.67 6.38 13.68 6.37 13.69 6.36C13.7 6.35 13.71 6.34 13.72 6.34L17.5 4.17C17.58 4.11 17.7 4.11 17.8 4.17L21.56 6.34C21.57 6.34 21.58 6.35 21.59 6.36L21.62 6.39C21.63 6.4 21.64 6.41 21.65 6.42C21.66 6.43 21.66 6.44 21.67 6.45C21.68 6.47 21.68 6.5 21.69 6.5C21.7 6.5 21.7 6.5 21.7 6.53M21.09 10.72V7.15L17.95 8.95V12.5L21.09 10.72M17.33 17.18V13.6L10.43 17.54V21.15L17.33 17.18M2.91 5V17.18L9.81 21.15V17.54L6.21 15.5L6.2 15.5L6.2 15.5C6.19 15.5 6.18 15.5 6.17 15.47C6.16 15.47 6.15 15.46 6.14 15.45V15.45C6.13 15.44 6.12 15.43 6.11 15.42C6.1 15.41 6.1 15.4 6.09 15.39V15.39C6.08 15.37 6.08 15.36 6.07 15.35C6.07 15.33 6.06 15.32 6.06 15.31C6.05 15.3 6.05 15.28 6.05 15.27C6.05 15.25 6.05 15.24 6.05 15.23V6.82L2.91 5M6.36 2.68L3.23 4.5L6.36 6.28L9.5 4.5L6.36 2.68M9.81 12.88V5L6.67 6.82V14.69L9.81 12.88M17.64 4.8L14.5 6.61L17.64 8.41L20.77 6.61L17.64 4.8M17.33 8.95L14.19 7.15V10.72L17.33 12.5V8.95M10.12 17L17 13.06L13.88 11.26L7 15.23L10.12 17Z" /></svg>
